X:1
T:E minor          Solomon Howe, 1804
T:Isaac Watts, 1706 The Law and Gospel       88. 88. (L. M.)
T:Nazareth
T:Transcribed from The Farmer's Evening Entertainment, 1804.
%%score [ 1 2 3 4 ]
L:1/8
Q:1/4=140
M:2/2
K:G
V:1 treble nm="Tr." snm="Tr."
V:2 treble nm="C." snm="C."
V:3 treble-8 nm="T." snm="T."
V:4 bass nm="B." snm="B."
V:1
"^1. Hark!  Hark! Je–sus prays,    the  char     –     ming sound  Dwells on ____ his    dy     –     ing   lips, ____ for–give;" G6 z2 | %1
 B4 B2 cd | e8 | e4 (e2 dc | B4) B4 | B8 || B4 (G3 A | B4) A4 | B8 | B4 (G3 A | B4) B4 | B8 || %12
"^1. And every groan ___  and  ga     –   ping  wound  Cries, Fa  –   ther,       let ______ the     re      –       bels  live!" e4 d4 | %13
 e4 (d3 c | B4) B4 | (e3 d c4) | B4 B4- | B4 e4 | (B4 c4) | B4 (A4 | B4) e4 | (e3 d c4) | B4 B4- | %23
 B8 |] %24
V:2
"^2. Go,    go, you that rest         up – on _______    the  law,  And toil, ____  and    seek_____ sal – va     –    tion there;" E6 z2 | %1
 G4 F2 E2 | G8 | E4 (G3 A | G4) F4 | G8 || G4 (E4 | D4) (E2 F2) | (G3 A G4) | F4 E4- | E4 F4 | %11
 G8 || %12
"^2.  Look to the flames    that  Mo     –    ses  saw,      And  shrink, and ___ trem   –     ble,    and _____     des–pair!" G4 F4 | %13
 G4 (G4 | D4) (E2 F2) | (G4 A4) | F4 G4- | G4 G4 | (G4 A4) | (E2 FG) F4- | F4 G4 | (G3 F E4) | %22
 ^D4 E4- | E8 |] %24
V:3
"^3. But,  But I'll re  – tire           be–neath _______ the cross;  Sa–vior, ____   at     thy _____  dear feet _____  I     lie:" B6 z2 | %1
 e4 d2 c2 | B8 | B4 (B3 c | B3 c) d4 | e8 || e4 (e3 c | B4) c4 | (d4 e4) | d4 (B3 A | G4) F4 | %11
 E8 || %12
"^3. And the keen sword   that  jus     –    tice draws,    Fla – ming   and      red, _____   shall   pass _____  me by." B4 B4 | %13
 B4 (B3 c | d4) e4 | (g3 f e4) | ^d4 e4- | e4 B4 | (e4 f4) | g4 (f3 e | d4) c4 | (B3 A G4) | %22
 F4 E4- | E8 |] %24
V:4
 E,6 z2 | E,4 B,,2 E,2 | (G,3 F, E,4) | E,4 (E,3 F, | G,4) F,4 | E,8 || E,4 (E,3 F, | G,4) F,4 | %8
 (G,3 F, E,4) | B,,4 E,4- | E,4 B,,4 | [E,,E,]8 || E,4 B,,4 | E,4 G,4- | G,4 E,4 | (E,4 A,4) | %16
 [B,,B,]4 E,4- | %17
 E,4"^________________________________________\nEdited by B. C. Johnston, 2017\n   1. Whole piece converted to 2:2 (cut) time; original varies back and forth between 2:2 and 3:2.\n   2. Measure 7, \nTenor\n: second note changed from D to E.\n   3. Measure 15, Bass: first note in original on both D and E; the D retained." E,4 | %18
 (G,4 F,4) | E,4 D,4- | D,4 (E,2 F,2) | E,4- E,4 | B,,4 [E,,E,]4- | [E,,E,]8 |] %24

